X: 726
T: Last Night's Fun
B: jims roots
M:4/4
L:1/16
R: reel
Q: 1/4=100
K:Dmaj
V:1 
dB|:"D"AD (3FED AAdB | ADFD "A"EFGB | "D"AD (3FED AA (3Bcd |
[1 "A"egfe "Bm"dBBd :|[2 "A"egfe "Bm"dBBA || A2|"D"df (3fff af (3fff |
df (3fff "A"egfe | "D"df (3fff af (3fff | df"A"ed "Bm"BdAB |
"D"df (3fff af (3fff | "A"egfe "D"defg | a2 ba af"A"eg |
fedc "Bm"BAdB | "do it all again!"A2 |]
% abcbook-tune_id 6298c25d83b6c82261e5b73f


% abcbook-boost 0
% abcbook-tablature 
% abcbook-transpose 
% abcbook-lastupdated 1654178399630
% abcbook-soundfonts 
% abcbook-repeats 1


